X:44
T:T028- Kiss me fast, my mother's coming
S:Aird's Airs, II, (1782)
Q:1/4=120
L:1/8
M:6/8
K:D
D2AF2A|E2F GFE|D2AF2A|D2AF2A|G2BF2A|E2F GFE|\
cdB AFA|D2F AFD::d2a faf|d2f gfe|d2g faf|d2g faf|\
gbg faf|e2f gfe|dcB AFA|D2F AFD:|]

